X:39
T:Tam Bain's Lum
M:4/4
L:1/8
R:Hornpipe
K:D
AB|"D"d2 f<a A>dd<d|"D"A>Bd>e f>ef<a|"A"e2 c<e A>cc<c|"A"A>ce>c a>gf>e|!
"D"d2 f<a A>dd<d|"D"A>Bd>e f>ef<a|"A"A>cc<c A>ce>c|"A"a>gf>e "D"d2:|!
|:f>g|"D"a2 f>d A>dd<d|"D"A>df>d a>df>d|"A"g2 e>c A>cc<c|"A"A>ce>f g2 f>
g|!
"D"a2 f>d A>dd<d|"D"A>df>d A>dd<d|"G"G>BB<B "A"A>ce>c|"A"a>gf>e "D"d2:|!
|:A>B|"D"d2 d>e f>AA<A|"D"f>ed>e f2 A>B|"A"c2 c>d e>AA<A|"A"a>gf>e "D"d2
 A>B|!
"D"d2 d>e f>AA<A|"D"f>ed>e f>AA<A|"G"B>GG<G "A"A>ce>c|"A"a>gf>e "D"d2:|!
|:d2|"D"A>dd<d  A>dd<d|"G"G>BB<B B3 B|"A"A>cc<c c>BA>B|"A"A>ce<c "D"d3 d
|!
"D"A>dd<d  A>dd<d|"G"G>BB<B g>fe>c|"A"A>cc<c A>ce>c|"A"a>gf>e "D"d2:||
